X: 071
T: Isle of Sky
R: reel
B: Robert Bremner "A Collection of Scots Reels or Country Dances" p.7 #1
S: http://imslp.org/wiki/A_Collection_of_Scots_Reels_or_Country_Dances_(Bremner,_Robert)
Z: 2013 John Chambers <jc:trillian.mit.edu>
M: C|
L: 1/8
K: Bb
% - - - - - - - - - - - - - - - - - - - - - - - - -
V: 1
B- |\
BFDF BFDF | EC-CB cGGA |\
BFDF BFDF | ECCF DB,B, :|
|: f- |\
fdfb fdBd | Tc>Bcd cGGf- |\
fdfb fdBd | Tc>Bcd B/B/B B :|
% - - - - - - - - - - - - - - - - - - - - - - - - -
V: 2 clef=bass middle=d
z |\
B2B2 B2B2 | c2c2 c2c2 |\
B2B2 B2B2 | f2f2 B2B :|\
z | b2b2
b2b2 | c'2c'2 c'2c'2 |\
b2b2 b2b2 | f2f2 B2B :|
% - - - - - - - - - - - - - - - - - - - - - - - - -

%%sep 1 1 500
%%sep 1 1 500
